X:540
T:Maids of Selma
R:jig
Z:Transcribed by Dave Marshall
M:6/8
K:G
|: G2 E EDE | G3 e3 | d2 B BAG | ABB AGF |
G2 E EDE | G2 g gBe | d2 B BAG | ABA G3 :|
| dBd gdg | e3 edB | d2 e g2 a | b2 e edB |
GBd gdg | e3 edB | d2 e g2 a | b2 b aba |
g2 g efg | f2 f dBd | e2 B BAG | ABB AGF |
FGE EDE | G2 g gBe | d2 B BAG | ABA G3 :|
